files/resources/svgs/general/s-chat-bubble-left.svg

<svg width="24" height="24" viewBox="0 0 24 24" fill="none" xmlns="http://www.w3.org/2000/svg">
<path fill-rule="evenodd" clip-rule="evenodd" d="M4.84836 2.771C7.18302 2.42773 9.57113 2.25 12.0003 2.25C14.4292 2.25 16.8171 2.4277 19.1516 2.77091C21.1299 3.06177 22.5 4.79445 22.5 6.74056V12.7595C22.5 14.7056 21.1299 16.4382 19.1516 16.7291C17.2123 17.0142 15.2361 17.1851 13.2302 17.2348C13.1266 17.2374 13.0318 17.2788 12.9638 17.3468L8.78033 21.5303C8.56583 21.7448 8.24324 21.809 7.96299 21.6929C7.68273 21.5768 7.5 21.3033 7.5 21V17.045C6.60901 16.9634 5.72491 16.8579 4.84836 16.729C2.87004 16.4381 1.5 14.7054 1.5 12.7593V6.74064C1.5 4.79455 2.87004 3.06188 4.84836 2.771Z" fill="#0F172A"/>
</svg>

<svg xmlns="http://www.w3.org/2000/svg" viewBox="0 0 24 24" fill="currentColor" aria-hidden="true">
  <path fill-rule="evenodd" d="M4.848 2.771A49.144 49.144 0 0112 2.25c2.43 0 4.817.178 7.152.52 1.978.292 3.348 2.024 3.348 3.97v6.02c0 1.946-1.37 3.678-3.348 3.97-1.94.284-3.916.455-5.922.505a.39.39 0 00-.266.112L8.78 21.53A.75.75 0 017.5 21v-3.955a48.842 48.842 0 01-2.652-.316c-1.978-.29-3.348-2.024-3.348-3.97V6.741c0-1.946 1.37-3.68 3.348-3.97z" clip-rule="evenodd"/>
</svg>
